X:1
T:Title
%%score { ( 1 4 ) | ( 2 3 ) }
L:1/8
Q:1/4=100
M:6/8
K:G
V:1 treble nm="Grand Piano"
V:4 treble 
V:2 bass 
V:3 bass 
V:1
 G2 A G2 D | G2 G B3 | A2 A ABc | B2 A .[B,G]3 | G2 A G2 D | G2 G B3 | [EA]2 [EA] AB[Ec] | %7
w: W.~J.~Kirkpatrick * * *|||||||
 [DB]2 [CA] .[B,G]3 | F2 F G2 G | A2 G F3 | G2 G GA[DGB] | [EGc]2 [DGB] [DFA]3 | %12
w: |||||
 [B,FB]2 [B,FB] [B,EG]2 [B,EG] | [A,EA]2 [A,EA] [A,DF]3 | .[G,DG]2 [G,CE] [G,B,D]2 [B,DG] | %15
w: |||
 [DGB]2 [CFA] [G,B,DG]3 | d2 e dcB | d2 e .d3 | B2 c BAG | d2 B .[FA]3 | B2 c BAG | c2 c d3 | %22
w: |||||||
 e2 e d2 B | dc[CFA] .[G,B,DG]3 |] %24
w: ||
V:2
 [G,B,D]2 [G,CD] [G,B,D]2 [G,B,] | [G,B,D]2 [G,B,D] [G,D]3 | %2
 [D,F,D]2 [D,F,D] [D,D]-[D,G,D][D,A,D] | [D,G,D]2 [D,F,C] .[G,,G,]3 | %4
 [G,B,D]2 [G,CD] [G,B,D]2 [G,B,] | [G,B,D]2 [G,B,D] [G,D]3 | [C,G,]2 [C,G,] [C,G,]2 [C,G,] | %7
 [D,G,]2 [D,F,] .[G,,G,]3 | [D,A,D]2 [D,A,D] [D,B,D]2 [D,B,D] | [D,CD]2 [D,B,D] [D,A,D]3 | %10
 z3 .[B,D]3 | G,2 G, D,3 | ^D,2 D, E,2 E, | ^C,2 C, D,3 | z FC, D,2 D, | D,2 D, G,,3 | %16
 [G,B,G]2 [G,CG] [G,G]-[G,A,G][G,G] | [G,B,G]2 [G,CG] .[G,B,G]3 | [G,DG]2 [G,EG] DC[G,B,] | %19
 [B,DG]2 [G,DG] .[D,D]3 | [G,DG]2 [G,EG] DC[G,B,] | [A,DF]2 [A,DF] [B,DG]3 | %22
 [CG]2 [CG] [B,DG]2 [G,DG] | [A,DF]2[K:bass] D, .G,,3 |] %24
V:3
 x6 | x6 | z3 .F,3 | x6 | x6 | x6 | x6 | x6 | x6 | x6 | [B,D]2 [B,D] z CG, | x6 | x6 | x6 | %14
 .B,,3 z3 | x6 | z3 .B,3 | x6 | z3 .[G,G]3 | x6 | z3 .[G,G]3 | x6 | x6 | x2[K:bass] x4 |] %24
V:4
 x6 | x6 | x6 | x6 | x6 | x6 | z3 .E3 | x6 | x6 | x6 | x6 | x6 | x6 | x6 | x6 | x6 | x6 | x6 | x6 | %19
 x6 | x6 | x6 | x6 | x6 |] %24

